build/img/logo.svg

<svg width="128" height="32" viewBox="0 0 128 32" fill="none" xmlns="http://www.w3.org/2000/svg">
<path d="M12.5269 3.69741C14.7911 3.69741 16.7635 4.07089 18.4441 4.81783C20.1247 5.56477 21.4202 6.63851 22.3306 8.03903C23.2409 9.43955 23.6961 11.0735 23.6961 12.9408C23.6961 14.8082 23.2409 16.4421 22.3306 17.8427C21.4202 19.2432 20.1247 20.3169 18.4441 21.0639C16.7635 21.8108 14.7911 22.1843 12.5269 22.1843H8.99061V28.2065H0.727539V3.69741H12.5269ZM12.0017 15.8119C13.1221 15.8119 13.9625 15.5668 14.5227 15.0766C15.0829 14.5631 15.363 13.8512 15.363 12.9408C15.363 12.0305 15.0829 11.3302 14.5227 10.8401C13.9625 10.3265 13.1221 10.0698 12.0017 10.0698H8.99061V15.8119H12.0017Z" fill="#FDAB1E"/>
<path d="M36.9099 22.0442H34.6691V28.2065H26.406V3.69741H38.2054C40.4696 3.69741 42.442 4.07089 44.1226 4.81783C45.8032 5.56477 47.0987 6.63851 48.009 8.03903C48.9194 9.43955 49.3745 11.0735 49.3745 12.9408C49.3745 14.6915 48.9777 16.2204 48.1841 17.5275C47.3905 18.8347 46.2467 19.8734 44.7528 20.6437L49.8997 28.2065H41.0765L36.9099 22.0442ZM41.0414 12.9408C41.0414 12.0305 40.7613 11.3302 40.2011 10.8401C39.6409 10.3265 38.8006 10.0698 37.6802 10.0698H34.6691V15.8119H37.6802C38.8006 15.8119 39.6409 15.5668 40.2011 15.0766C40.7613 14.5631 41.0414 13.8512 41.0414 12.9408Z" fill="#FDAB1E"/>
<path d="M65.3446 28.7667C62.7069 28.7667 60.3377 28.2182 58.2369 27.1211C56.1362 26.024 54.4905 24.5068 53.3001 22.5694C52.1097 20.6087 51.5144 18.4029 51.5144 15.952C51.5144 13.5011 52.1097 11.3069 53.3001 9.36952C54.4905 7.40879 56.1362 5.87989 58.2369 4.78282C60.3377 3.68574 62.7069 3.13721 65.3446 3.13721C67.9822 3.13721 70.3514 3.68574 72.4522 4.78282C74.553 5.87989 76.1986 7.40879 77.389 9.36952C78.5795 11.3069 79.1747 13.5011 79.1747 15.952C79.1747 18.4029 78.5795 20.6087 77.389 22.5694C76.1986 24.5068 74.553 26.024 72.4522 27.1211C70.3514 28.2182 67.9822 28.7667 65.3446 28.7667ZM65.3446 22.0792C66.3716 22.0792 67.2936 21.8341 68.1106 21.344C68.9509 20.8304 69.6162 20.1185 70.1063 19.2082C70.5965 18.2745 70.8416 17.1891 70.8416 15.952C70.8416 14.7148 70.5965 13.6411 70.1063 12.7308C69.6162 11.7971 68.9509 11.0852 68.1106 10.595C67.2936 10.0815 66.3716 9.82469 65.3446 9.82469C64.3175 9.82469 63.3838 10.0815 62.5435 10.595C61.7266 11.0852 61.073 11.7971 60.5828 12.7308C60.0926 13.6411 59.8475 14.7148 59.8475 15.952C59.8475 17.1891 60.0926 18.2745 60.5828 19.2082C61.073 20.1185 61.7266 20.8304 62.5435 21.344C63.3838 21.8341 64.3175 22.0792 65.3446 22.0792Z" fill="#FDAB1E"/>
<path d="M69.2053 10.8944C70.0495 10.8944 70.7802 11.0351 71.3975 11.3165C72.0238 11.5979 72.5049 11.9973 72.8408 12.5147C73.1767 13.0321 73.3446 13.6448 73.3446 14.3529C73.3446 15.0518 73.1767 15.6645 72.8408 16.191C72.5049 16.7085 72.0238 17.1079 71.3975 17.3893C70.7802 17.6616 70.0495 17.7977 69.2053 17.7977H67.2854V20.4257H65.0796V10.8944H69.2053ZM69.0827 16.0004C69.7454 16.0004 70.2492 15.8597 70.5941 15.5783C70.9391 15.2878 71.1116 14.8793 71.1116 14.3529C71.1116 13.8173 70.9391 13.4088 70.5941 13.1274C70.2492 12.8369 69.7454 12.6917 69.0827 12.6917H67.2854V16.0004H69.0827Z" fill="black"/>
<path d="M82.1797 18.6556V20.4257H74.7997V10.8944H82.0027V12.6645H76.9919V14.7341H81.4172V16.4497H76.9919V18.6556H82.1797Z" fill="black"/>
<path d="M92.6349 20.4257L92.6213 14.7205L89.8163 19.4181H88.836L86.031 14.8294V20.4257H83.9614V10.8944H85.7859L89.3534 16.8174L92.8664 10.8944H94.6909L94.7045 20.4257H92.6349Z" fill="black"/>
<path d="M101.62 20.5891C100.631 20.5891 99.7365 20.3757 98.9377 19.9491C98.1479 19.5225 97.5261 18.937 97.0723 18.1926C96.6275 17.4392 96.4051 16.595 96.4051 15.66C96.4051 14.725 96.6275 13.8854 97.0723 13.141C97.5261 12.3876 98.1479 11.7976 98.9377 11.3709C99.7365 10.9443 100.631 10.731 101.62 10.731C102.609 10.731 103.499 10.9443 104.289 11.3709C105.079 11.7976 105.7 12.3876 106.154 13.141C106.608 13.8854 106.835 14.725 106.835 15.66C106.835 16.595 106.608 17.4392 106.154 18.1926C105.7 18.937 105.079 19.5225 104.289 19.9491C103.499 20.3757 102.609 20.5891 101.62 20.5891ZM101.62 18.71C102.183 18.71 102.691 18.5829 103.145 18.3288C103.599 18.0655 103.953 17.7024 104.207 17.2395C104.47 16.7765 104.602 16.25 104.602 15.66C104.602 15.07 104.47 14.5435 104.207 14.0805C103.953 13.6176 103.599 13.259 103.145 13.0049C102.691 12.7416 102.183 12.61 101.62 12.61C101.057 12.61 100.549 12.7416 100.095 13.0049C99.6412 13.259 99.2826 13.6176 99.0194 14.0805C98.7652 14.5435 98.6381 15.07 98.6381 15.66C98.6381 16.25 98.7652 16.7765 99.0194 17.2395C99.2826 17.7024 99.6412 18.0655 100.095 18.3288C100.549 18.5829 101.057 18.71 101.62 18.71Z" fill="black"/>
<path d="M117.276 10.8944V20.4257H115.07V16.5178H110.74V20.4257H108.534V10.8944H110.74V14.6524H115.07V10.8944H117.276Z" fill="black"/>
<path d="M126.949 12.6917H123.899V20.4257H121.72V12.6917H118.684V10.8944H126.949V12.6917Z" fill="black"/>
</svg>

<svg width="128" height="32" viewBox="0 0 128 32" fill="none" xmlns="http://www.w3.org/2000/svg">
    <path d="M12.527 3.697c2.264 0 4.237.374 5.917 1.12 1.68.748 2.976 1.822 3.887 3.222.91 1.4 1.365 3.034 1.365 4.902 0 1.867-.455 3.501-1.365 4.902-.91 1.4-2.206 2.474-3.887 3.22-1.68.748-3.653 1.121-5.917 1.121H8.99v6.022H.728V3.697h11.799zm-.525 12.115c1.12 0 1.96-.245 2.52-.735.56-.514.841-1.226.841-2.136 0-.91-.28-1.61-.84-2.1-.56-.514-1.4-.771-2.521-.771H8.99v5.742H12zM36.91 22.044h-2.24v6.162h-8.264V3.697h11.8c2.264 0 4.236.374 5.917 1.12 1.68.748 2.976 1.822 3.886 3.222.91 1.4 1.365 3.034 1.365 4.902 0 1.75-.396 3.28-1.19 4.586-.793 1.308-1.937 2.346-3.431 3.117l5.147 7.563h-8.823l-4.167-6.163zm4.131-9.103c0-.91-.28-1.61-.84-2.1-.56-.514-1.4-.771-2.52-.771h-3.012v5.742h3.011c1.12 0 1.96-.245 2.521-.735.56-.514.84-1.226.84-2.136zM65.345 28.767c-2.638 0-5.007-.549-7.108-1.646-2.1-1.097-3.747-2.614-4.937-4.552-1.19-1.96-1.786-4.166-1.786-6.617 0-2.45.596-4.645 1.786-6.582 1.19-1.961 2.836-3.49 4.937-4.587 2.1-1.097 4.47-1.646 7.108-1.646 2.637 0 5.006.549 7.107 1.646S76.2 7.409 77.39 9.37c1.19 1.937 1.786 4.131 1.786 6.582 0 2.45-.596 4.657-1.786 6.617-1.19 1.938-2.836 3.455-4.937 4.552-2.1 1.097-4.47 1.646-7.107 1.646zm0-6.688c1.027 0 1.949-.245 2.766-.735.84-.514 1.505-1.226 1.995-2.136.49-.933.736-2.019.736-3.256 0-1.237-.245-2.31-.736-3.221-.49-.934-1.155-1.646-1.995-2.136-.817-.514-1.74-.77-2.766-.77-1.028 0-1.961.257-2.801.77-.817.49-1.471 1.202-1.961 2.136-.49.91-.736 1.984-.736 3.221s.246 2.322.736 3.256c.49.91 1.144 1.622 1.96 2.136.84.49 1.774.735 2.802.735z" fill="#FDAB1E"/>
    <path d="M69.205 10.894c.844 0 1.575.141 2.192.422.627.282 1.108.681 1.444 1.199.336.517.504 1.13.504 1.838 0 .699-.168 1.312-.504 1.838-.336.518-.817.917-1.444 1.198-.617.273-1.348.409-2.192.409h-1.92v2.628H65.08v-9.532h4.125zM69.083 16c.662 0 1.166-.14 1.511-.422.345-.29.518-.699.518-1.225 0-.536-.173-.944-.518-1.226-.345-.29-.849-.435-1.511-.435h-1.798V16h1.798zM82.18 18.656v1.77H74.8v-9.532h7.203v1.77h-5.011v2.07h4.425v1.716h-4.425v2.206h5.188zM92.635 20.426l-.014-5.705-2.805 4.697h-.98l-2.805-4.589v5.597h-2.07v-9.532h1.825l3.567 5.923 3.513-5.923h1.825l.013 9.532h-2.07zM101.62 20.59c-.989 0-1.883-.214-2.682-.64a4.826 4.826 0 0 1-1.866-1.757c-.445-.754-.667-1.598-.667-2.533 0-.935.222-1.775.667-2.519a4.795 4.795 0 0 1 1.866-1.77c.799-.427 1.693-.64 2.682-.64.989 0 1.879.213 2.669.64a4.794 4.794 0 0 1 1.865 1.77c.454.744.681 1.584.681 2.519s-.227 1.78-.681 2.533a4.825 4.825 0 0 1-1.865 1.756c-.79.427-1.68.64-2.669.64zm0-1.88c.563 0 1.071-.127 1.525-.381a2.783 2.783 0 0 0 1.062-1.09c.263-.463.395-.989.395-1.579s-.132-1.117-.395-1.58a2.69 2.69 0 0 0-1.062-1.075 2.983 2.983 0 0 0-1.525-.395c-.563 0-1.071.132-1.525.395a2.784 2.784 0 0 0-1.076 1.075c-.254.463-.38.99-.38 1.58 0 .59.126 1.116.38 1.58.264.462.622.826 1.076 1.089.454.254.962.381 1.525.381zM117.276 10.894v9.532h-2.206v-3.908h-4.33v3.908h-2.206v-9.532h2.206v3.758h4.33v-3.758h2.206zM126.949 12.692h-3.05v7.734h-2.179v-7.734h-3.036v-1.798h8.265v1.798z" fill="#000"/>
</svg>
